X:1
T:Allegretto in C minor
T:Allegretto in C minor
T:D.915
T:Franz Schubert
T:Public Domain (PianoXML typeset)
T:Public Domain (PianoXML typeset)
T:Public Domain (PianoXML typeset)
T:Public Domain (PianoXML typeset)
T:Public Domain (PianoXML typeset)
C:Franz Schubert
Z:Public Domain (PianoXML typeset)
%%score { ( 1 4 ) | ( 2 3 5 ) }
L:1/8
Q:1/4=118
M:6/8
K:Eb
V:1 treble nm="Piano" snm="Pno."
V:4 treble 
V:2 bass 
V:3 bass 
V:5 bass 
V:1
"^Allegretto"!<(! (C | CE!1!G!<)! c!>(!ed!>)! | c3 G) z (G | !3!GAF !3!FGE | !3!EFD C2)!pp! (E | %5
 E!1!GB egf | e3 B) z (!4!c | !3!BAc !2!A[Q:1/4=115]"_rit."GB | %8
[Q:1/4=105] !2!GF[Q:1/4=90]d !fermata!e2)"^a tempo"[Q:1/4=118] (C |!<(! CEG!<)! c!>(!ed | %10
 c3!>)! G) z (G |"_dim." GAF FGE | EFD C2)!pp! E | (EGB egf | e3 B) z (!4!c | %15
 !3!BAc !2!A"_rit."G[Q:1/4=115]B |[Q:1/4=105] !2!GF[Q:1/4=90]d !fermata!e2)!p! (x | %17
"^a tempo"[Q:1/4=118] dfc"_cresc." !1!=B!5!dA | !1!G2) (c dfc | =BdA G2) (f |!f! fae dfc | %21
 =BdA G2)!ff! (A | GAF EFC | DEC (.G.G))[K:bass] (A, | G,A,F, E,F,C, | D,E,C, (.G,.G,)) z | z6 | %27
[K:treble]!p! (!>!.[C^FG].[CFG]) z z2 z |!pp! (!>!.[D=FG].[DFG]) z !fermata!z2!p! (C | C=EG c=ed | %30
 c3 G) z (!4!=A | !3!GF=A !2!F=EG | !2!=ED=B c2) (C | C_EG ced | c!<(!gf cag!<)! | %35
!ff! c)(b!>(!a ged | cA"^poco rit."[Q:1/4=110]G!>)! F_D[Q:1/4=100]A,) | %37
!p! (G,[CE][=B,D] [CE][DF][Q:1/4=95][EG] |!pp! [CE][DF][=B,D] !tenuto!!fermata!C2) :| %39
[K:Ab]"^a tempo" z |!pp![Q:1/4=118]"_una corda" ((([_DA-_d]3 [CAc])) z z | (([B,A-B]3 [CAc])) z z | %42
 (([DA-d]3 [CAc]2)) [DAd] |!>(! [EGe]6)!>)! |!>(! (([EA-e]3 ([DAd]))!>)! z z | %45
!>(! [FA-=Bf]3 [EAce]!>)! z z | [CAc]3 [DBd]2 .[Ece] | [CAc]6) | (([DA-d]3 ([CAc])) z z | %49
 (([B,A-B]3 [CAc])) z z | ([DA-d]3 [CAc]2) [DAd] |!>(! [EGe]6)!>)! |!>(! ([EA-e]3 ([DAd])!>)! z z | %53
!>(! (([F=ABf]3 [EAce]))!>)! z z |!pp! [CAc]3 [DBd]2 .[Ece] | [CAc]6) | ((c3 A) z z | (A3 F) z z | %58
 FB=A BdB | _A3 G) z z |"_cresc." ((e3 c) z z | (c3 A) z z |!<(! Adc!<)!!>(! dfd!>)! | %63
 [Ac]3 [GB]) z z |!pp! ((([_Gd]3 [Fd])) z z | (([Ad]3 [_Gd])) z z | (([_C_G_c]3 [B,GB]2)) [EGce] | %67
 [DF_cd]6) |!<(! ((([D_GBd]3 [=DA_c=d]))!<)! z z |!f!!>(! (([EA-=ce]3 [A_cfa]))!>)! z z | %70
!p! [E=ce]3 [DBd]2 [B,GB] | [CAc]6) |!pp! ([CE]3 [DF]2 [B,G] | [CA]3- [CA]2) z | ((c3 A) z z | %75
 (A3 F) z z | FB=A BdB | (_A3 G)) z z |"_cresc." ((e3 c) z z | (c3 A) z z | %80
!<(! Adc!<)!!>(! dfd!>)! | [Ac]3 [GB]) z z |!pp! ((([_Gd]3 [Fd])) z z | (([Ad]3 [_Gd])) z z | %84
 (([_C_G-_c]3 [B,GB]2)) [EGce] | [DF_cd]6) | ((([D_GBd]3 [=DA_c=d])) z z | %87
!f!!>(! (([EA=ce]3 [A_cfa]))!>)! z z |!p! ([E=ce]3 [DBd]2 [B,GB]) | [CAc]6) | %90
!pp! [CE]3 ([DF]2 [B,G] | [CA]3- [CA]2)!p! (C ||[K:Eb] C!<(!EG c!<)!e!>(!d | c3!>)! G) z (G | %94
"_dim." GAF FGE | EFD C2)!pp! (E | EGB egf | e3 B) z (!4!c | !3!BAc !2!A"_rit."GB | %99
 !2!GFd !fermata!e2) (C |!<(! CEG!<)!!>(! ced | c3!>)! G) z (G |"_dim." GAF FGE | EFD C2)!pp! (E | %104
 EGB egf | e3 B) z (c | BAc A"_rit."GB | GFd !fermata!e2)!p!"^a tempo" x | (dfc =B.d"_cresc."A | %109
 G2) (c dfc | =BdA G2) (f |!f! fae dfc | =BdA G2)!ff! (A | GAF EFC | DEC (.G.G))[K:bass] (A, | %115
 G,A,F, E,F,C, | D,E,C, (.G,.G,)) z | z6 |[K:treble] (!>!.[C^FG].[CFG]) z z2 z | %119
 (!>!.[D=FG].[DFG]) z !fermata!z2 (C | C=EG c=ed | c3 G) z (!4!=A | !3!GF=A !2!F=EG | %123
 !2!=ED=B c2) (C | C_EG ced | c!<(!gf cag!<)! |!ff! c)!>(!(ba ged!>)! | %127
"_dim." cAG"^poco rit." F_DA, |!p! G,)([CE][=B,D] [CE][DF][EG] |!pp! [CE][DF][=B,D] !fermata!C2) |] %130
V:2
!p! (C, |!ped! C,E,G, C!2!E!1!D!ped-up! | C3 G,) z (G, | G,A,F, F,G,E, | E,F,D, C,2) z | %5
!ped! ([G,B,]3- [G,B,]2 [A,_C]!ped-up! | [G,B,]3- [G,B,]2) z | (([C,E,-A,]3 [B,,E,B,]3)) | %8
 (B,3 [G,B,]2)!p! C, |!ped! (C,E,G, CED!ped-up! | C3 G,) z (G, | G,A,F, F,G,E, | E,F,D, C,2) z | %13
!ped! ([G,B,]3- [G,B,]2 [A,_C]!ped-up! | [G,B,]3- [G,B,]2) z | (([C,E,-A,]3 [B,,E,B,]3)) | %16
 (B,3 [G,B,]2) z | z z (!2!E DF!2!C | !3!=B,D!3!A, G,2) (C | DFC =B,DA, | G,2) (F FAE | %21
 DFC =B,D)(A, | G,A,F, E,F,C, | D,E,C, (.G,.G,)) (A,, | G,,A,,F,, E,,F,,C,, | %25
 D,,E,,C,, (.G,,.G,,)) z | z6 | (!>!.[G,,=A,,].[G,,A,,]) z z2 z | %28
 (!>!.[G,,=B,,].[G,,B,,]) z !fermata!z2 z |!ped! ((([=E,G,]3 [E,G,]2)) [F,_A,]!ped-up! | %30
 [=E,G,]3- [E,G,]2) z | (([=A,,C,-F,]3 [G,,C,G,]3)) | (G,3 [=E,G,]2)!f! (C, | %33
!ped! C,_E,G, CED!ped-up! |[K:treble]!ped! CGF!ped-up!!ped! CAG!ped-up! | %35
!ped! C)(BA!ped-up! G!tenuto!ED |[K:bass] CA,G, F,_D,A,,) | (G,,[C,E,][=B,,D,] [C,E,][D,F,][E,G,] | %38
 G,2 G, !fermata![E,G,]2) :|[K:Ab] z | [A,,-F,A,-]3 [A,,E,A,] z z | [A,,-=D,A,-]3 [A,,E,A,] z z | %42
 (([A,,F,A,]3!<(! [A,,E,A,]2)) [F,A,]!<)! |!ped! [E,B,]6!ped-up! | !2![A,,-_G,A,-]3 [A,,F,A,] z z | %45
!ped! !3![A,,-=D,A,-]3 !2![A,,E,A,]!ped-up! z z | ([E,,E,]3- [E,,E,]2 .[E,,E,] | %47
!ped! [A,,E,]6)!ped-up! |!pp! ([A,,-F,A,-]3 [A,,E,A,]) z z | ([A,,-=D,A,-]3 [A,,E,A,]) z z | %50
 ([A,,-F,A,-]3!<(! [A,,E,A,]2) [F,A,]!<)! |!ped! [E,B,]6!ped-up! | [A,,-_G,A,-]3 [A,,F,A,] z z | %53
!ped! [A,,-=D,A,-]3 .[A,,E,A,]!ped-up! z z | ([E,,E,]3- [E,,E,]2 .[E,,E,] | %55
!ped! [A,,E,]6)!ped-up! |!ped! (([A,C]3 [F,A,]))!ped-up! z z | %57
!ped! ((([F,A,]3 [D,F,])))!ped-up! z z | (F,3- F,B,D | C3 B,) x2 | %60
!ped! (([CE]3 [A,C]))!ped-up! z z |!ped! (([A,C]3 [_G,A,]))!ped-up! z z | (A,3- A,DF | %63
 [E,E]3- [E,E]) z z | (([B,D]3 [A,D])) z z | (([_CD]3 [B,D])) z z | %66
 (([E,_G,]3 [D,G,]2)) [_C,G,_C] |!ped! [D,A,]6!ped-up! | (([_G,B,]3 [F,A,_C])) z z | %69
 (([E,A,-=C]3 [A,_C])) z z | ([E,,E,]3 !tenuto![E,,E,]2 !tenuto![E,,E,] |!ped! [A,,E,]6)!ped-up! | %72
 (!tenuto![E,,E,]3 !tenuto![E,,E,]2 !tenuto![E,,E,] |!ped! [A,,E,]3- [A,,E,]2)!ped-up! z | %74
!ped! (([A,C]3 [F,A,]))!ped-up! z z |!ped! (([F,A,]3 [D,F,]))!ped-up! z z | (F,3- F,B,D | %77
 C3 B,) x2 |!ped! (([CE]3 [A,C]))!ped-up! z z |!ped! (([A,C]3 [_G,A,]))!ped-up! z z | (A,3- A,DF | %81
 [E,E]3- [E,E]) z z | ([B,D-]3 [A,D]) z z | ([_CD-]3 [B,D]) z z | ([E,_G,-]3 [D,G,]2) [_C,G,_C] | %85
!ped! [D,A,]6!ped-up! | (([_G,B,]3 [F,A,_C])) z z | [E,A,-=C]3 [=D,A,_C] z z | %88
 ([E,,E,]3 !tenuto![E,,E,]2 [E,,E,] |!ped! [A,,E,]6)!ped-up! | %90
 (!tenuto![E,,E,]3 !tenuto![E,,E,]2 !tenuto![E,,E,] |!ped! [A,,E,]3- [A,,E,]2)!ped-up! (C, || %92
[K:Eb] C,E,G, CED | C3 G,) z (G, | G,A,F, F,G,E, | E,F,D, C,2) z | %96
!ped! ([G,B,]3- [G,B,]2 [A,_C]!ped-up! | [G,B,]3- [G,B,]2) z | (([C,E,-A,]3 [B,,E,B,]3)) | %99
 (B,3 [G,B,]2)!p! (C, |!ped! C,E,G, CED | C3 G,)!ped-up! z (G, | G,A,F, F,G,E, | E,F,D, C,2) z | %104
!ped! [G,B,]3- [G,B,]2 [A,_C]!ped-up! | [E,G,B,]3- E,2 z | (([C,E,-A,]3 [B,,E,B,]3)) | %107
 (B,3 [G,B,]2) z | z z E (DFC | =B,DA, G,2) (C | DFC =B,DA, | G,2) (F FAE | DFC =B,D)(A, | %113
 G,A,F, E,F,C, | D,E,C, (.G,.G,)) (A,, | G,,A,,F,, E,,F,,C,, | D,,E,,C,, (.G,,.G,,)) z | z6 | %118
 (!>!.[G,,=A,,].[G,,A,,]) z z2 z |!pp! (!>!.[G,,=B,,].[G,,B,,]) z !fermata!z2!p! z | %120
!ped! [=E,G,]3- [E,G,]2 [F,_A,]!ped-up! | [=E,G,]3- [E,G,]2 z | (([=A,,C,-F,]3 [G,,C,G,]3)) | %123
 (G,3 [=E,G,]2)!f! (C, |!ped! C,_E,G, CED!ped-up! |[K:treble]!ped! CGF!ped-up!!ped! CAG!ped-up! | %126
!ped! C)(BA!ped-up! GED |[K:bass] CA,G, F,_D,A,, | G,,)([C,E,][=B,,D,] [C,E,][D,F,][E,G,] | %129
 G,2 G, !fermata![E,G,]2) |] %130
V:3
 x | x6 | x6 | x6 | x6 | E,6- | E,3- E,2 x | x6 | D,F,A, x3 | x6 | x6 | x6 | x6 | E,6- | %14
 E,3- E,2 x | x6 | D,F,A, x2 z | x6 | x6 | x6 | x6 | x6 | x6 | x6 | x6 | x6 | x6 | x6 | x6 | C,6 | %30
 C,3- C,2 x | x6 | =B,,D,F, x3 | x6 |[K:treble] x6 | x6 |[K:bass] x6 | G,,6 | %38
 G,,2 G,, !fermata!C,,2 :|[K:Ab] x | x6 | x6 | x6 | x6 | x6 | x6 | x6 | x6 | x6 | x6 | x6 | x6 | %52
 x6 | x6 | x6 | x6 | x6 | x6 | D,6 | E,3- E, z z | x6 | x6 | F,6 | x6 | x6 | x6 | x6 | x6 | x6 | %69
 x6 | x6 | x6 | x6 | x6 | x6 | x6 | D,6 | E,3- E, z z | x6 | x6 | F,6 | x6 | x6 | x6 | x6 | x6 | %86
 x6 | x6 | x6 | x6 | x6 | x6 ||[K:Eb] x6 | x6 | x6 | x6 | E,6- | E,3- E,2 x | x6 | D,F,A, x2 x | %100
 x6 | x6 | x6 | x6 | E,6- | x3 [G,B,]2 x | x6 | D,F,A, x3 | x6 | x6 | x6 | x6 | x6 | x6 | x6 | x6 | %116
 x6 | x6 | x6 | x6 | C,6- | C,3 C, z x | x6 | =B,,D,F, x3 | x6 |[K:treble] x6 | x6 |[K:bass] x6 | %128
 G,,6 | G,,2 G,, !fermata!C,,2 |] %130
V:4
 x | x6 | x6 | x6 | x6 | x6 | x6 | x6 | x (F2 !fermata!E2) x | x6 | x6 | x6 | x6 | x6 | x6 | x6 | %16
 z (F2 !fermata!E2) e | x6 | x6 | x6 | x6 | x6 | x6 | x5[K:bass] x | x6 | x6 | x6 |[K:treble] x6 | %28
 x6 | x6 | x6 | x6 | x (D2 C2) x | x6 | x6 | x6 | x6 | G,6 | x5 :|[K:Ab] x | x6 | x6 | x6 | x6 | %44
 x6 | x6 | x6 | x6 | x6 | x6 | x6 | x6 | x6 | x6 | x6 | x6 | x6 | x6 | x6 | x6 | x6 | x6 | x6 | %63
 x6 | x6 | x6 | x6 | x6 | x6 | x6 | x6 | x6 | x6 | x6 | x6 | x6 | x6 | x6 | x6 | x6 | x6 | x6 | %82
 x6 | x6 | x6 | x6 | x6 | x6 | x6 | x6 | x6 | x6 ||[K:Eb] x6 | x6 | x6 | x6 | x6 | x6 | x6 | %99
 x (F2 !fermata!E2) x | x6 | x6 | x6 | x6 | x6 | x6 | x6 | x (F2 !fermata!E2) e | x6 | x6 | x6 | %111
 x6 | x6 | x6 | x5[K:bass] x | x6 | x6 | x6 |[K:treble] x6 | x6 | x6 | x6 | x6 | x (D2 C2) x | x6 | %125
 x6 | x6 | x6 | G,6 | x5 |] %130
V:5
 x | x6 | x6 | x6 | x6 | x6 | x6 | x6 | (B,,3 !fermata!E,2) x | x6 | x6 | x6 | x6 | x6 | x6 | x6 | %16
 (B,,3 !fermata!E,2) x | x6 | x6 | x6 | x6 | x6 | x6 | x6 | x6 | x6 | x6 | x6 | x6 | x6 | x6 | x6 | %32
 (G,,3 C,2) x | x6 |[K:treble] x6 | x6 |[K:bass] x6 | x6 | x5 :|[K:Ab] x | x6 | x6 | x6 | x6 | x6 | %45
 x6 | x6 | x6 | x6 | x6 | x6 | x6 | x6 | x6 | x6 | x6 | x6 | x6 | x6 | x6 | x6 | x6 | x6 | x6 | %64
 x6 | x6 | x6 | x6 | x6 | x6 | x6 | x6 | x6 | x6 | x6 | x6 | x6 | x6 | x6 | x6 | x6 | x6 | x6 | %83
 x6 | x6 | x6 | x6 | x6 | x6 | x6 | x6 | x6 ||[K:Eb] x6 | x6 | x6 | x6 | x6 | x6 | x6 | %99
 (B,,3 !fermata!E,2) x | x6 | x6 | x6 | x6 | x6 | x6 | x6 | (B,,3 !fermata!E,2) x | x6 | x6 | x6 | %111
 x6 | x6 | x6 | x6 | x6 | x6 | x6 | x6 | x6 | x6 | x6 | x6 | (G,,3 C,2) x | x6 |[K:treble] x6 | %126
 x6 |[K:bass] x6 | x6 | x5 |] %130

